shader_type spatial;
//render_mode diffuse_toon, specular_toon;

uniform vec3 albedo: source_color;
uniform float metallic: hint_range(0.0, 1.0);
uniform float roughness: hint_range(0.0, 1.0);


void vertex()
{
}

void fragment()
{
	ALBEDO = albedo;
	METALLIC = metallic;
	ROUGHNESS = roughness;
}

