shader_type canvas_item;

void vertex()
{
	bool my_bool = true;
	int my_int = 9;
	if (my_bool)
	{
		
	}
	else if (my_int == 8)
	{
		
	}
	else
	{
		
	}
	
	int i = 0;
	while(i < 10)
	{
		i += 1;
	}
	
	for (int j = 0; j < 5; j++)
	{
		
	}
	
	my_int = 1;
	switch(my_int)
	{
		case 1:
			// Stuff
			break;
		case 2:
			break;
		case 3:
			break;
		default:
			break;
	}
	
	do
	{
		
	} while(false);
}

void fragment()
{
}
